X: 8
M: 6/8
L: 1/8
K: Bb
V: 1
|:\
ded e2d | c2B ABc | F2B A2e | dec B3 :: edB d2e | f2F F3 |
cBA c2d | e2F F2e | d2F c2F | BcB AGF | A2e dec | B3- B3 :|
V: 2 clef=bass middle=d
|:\
f6 | a3 d2c' | b3 a3 | g3 f2d | e2c f2F | B3- B3 :|

